!!!OTL: Der Nachtjaeger
!!!OTL-incipit:Ein stolzer Jaeger, der blies das Jaegerhorn,
!!!ARE: Europa, Mitteleuropa, Deutschland (BRD), Hessen, Nassau
!!!YOR: 6, S. 166
!!    1894 gedruckt in Berlin
!!!SCT: Q0133C
!!!TXL: @@DE
!!!YEM: Copyright 1995, estate of Helmut Schaffrath.
**kern	**text
*ICvox	*
*M2/4	*
*k[f#]	*
*G:	*
{(16gL	1._Ein
16bJ)	.
=1	=1
4dd	stol-
(8ddL	-zer
8ccJ)	.
=2	=2
(8bL	Ja-
8aJ)	.
8bL	-ger,
8ccJ	der
=3	=3
8ddL	blies
8ddJ	das
8eeL	Jä-
(16dd	-ger-
16ccJ)	.
=4	=4
4b	-horn,
8r}	.
{(16gL	er
16bJ)	.
=5	=5
4.dd	blies
8dd	das
=6	=6
(4ee	Wild-
8ddL)	.
8ccJ	-pret
=7	=7
4b	aus
4a	dem
=8	=8
4g	Korn.
4r}	.
=9	=9
{4a	Hei-
8aL	-ras-
8aJ	-sa-
=10	=10
4.a	-sa,
8dd	zum
=11	=11
16bL	Val-
16b	-le-
16b	-ral-
16bJ	-le-
16bL	-ral-
16a	-le-
16b	-ral-
16ccJ	-le-
=12	=12
4b	-ra,
8r}	.
{(16gL	er
16bJ)	.
=13	=13
4.dd	blies
8dd	das
=14	=14
(4ee	Wild-
8ddL)	.
8ccJ	-pret
=15	=15
4b	aus
4a	dem
=16	=16
4g	Korn.
8r}	.
==	==
!!!AGN: Ballade, Jagd, Flucht, Vergewaltigung, Tod
!! Dritte Zeile = Refrain auf sinnfreie Silben. Schlusspause korrigiert.
!!!ONB: ESAC (Essen Associative Code) Database: BALLADE
!!!AMT: simple duple
!!!AIN: vox
!!!EED: Helmut Schaffrath
!!!EEV: 1.0
!!@@COMMENT:"Wolfram 8. 79f. Nr. 53."
!!@@END:
!!!source: Deutsche Volkslieder mit ihren Melodien Balladen. Herausgegeben vom Deutschen Volksliedarchiv. Sechster Band. Freiburg/Breisgau 1976.
!!!page: 166
!!!ENC: Anna Maria Matuszewska
!!!EEV: 2025/03/06
*-	*-
